X: 3
T: Nancy
Z: Dr. Dow
S: https://thesession.org/tunes/3471#setting16510
R: reel
M: 4/4
L: 1/8
K: Dmaj
|:(3ABc|d2D2 F2A2|d2fe d2A2|d2ef gfed|cdec ABcA|d2D2 F2A2|d2fe d2A2|B2g2 fedc|d4 d2:||:fg|a3b a2gf|g3a g2fe|f2d2 gfed|cdec ABcA|d2D2 F2A2|d2fe d2A2|B2g2 fedc|d4 d2:||:A2|dcBA GFED|FDFA d3A|d2ef gfed|cdec ABcA|dcBA GFED|FDFA d3A|B2g2 fedc|d4 d2:||:fg|aA A/A/A aA A/A/A|gA A/A/A gAgA|fAfA gfed|cdec ABcA|dcBA GFED|F2A2 d2A2|B2g2 fedc|d4 d2:|
